img/slider-img3.svg

<svg width="330" height="179" viewBox="0 0 330 179" fill="none" xmlns="http://www.w3.org/2000/svg">
<g filter="url(#filter0_dd_1_258163)">
<rect x="35" width="260" height="119" rx="8" fill="white"/>
<g clip-path="url(#clip0_1_258163)">
<path opacity="0.05" d="M83.7501 85.0803C97.3529 85.0803 108.38 83.567 108.38 81.7003C108.38 79.8336 97.3529 78.3203 83.7501 78.3203C70.1473 78.3203 59.1201 79.8336 59.1201 81.7003C59.1201 83.567 70.1473 85.0803 83.7501 85.0803Z" fill="black"/>
<path d="M250.45 49.1505C250.436 46.7071 251.244 44.3299 252.745 42.4013C254.245 40.4726 256.35 39.1046 258.722 38.5171C261.094 37.9297 263.594 38.1569 265.821 39.1624C268.048 40.1678 269.872 41.893 271 44.0605L267 45.3605C266.206 44.182 265.062 43.2828 263.729 42.7899C262.396 42.2971 260.942 42.2355 259.572 42.614C258.203 42.9924 256.986 43.7916 256.095 44.8988C255.205 46.006 254.684 47.3651 254.608 48.7841C254.531 50.2031 254.902 51.6103 255.669 52.8069C256.436 54.0034 257.559 54.9288 258.88 55.4523C260.201 55.9758 261.653 56.071 263.032 55.7243C264.41 55.3777 265.644 54.6068 266.56 53.5205L264.18 53.9105L261.29 51.0205L267.51 50.0205L273.74 49.0205L272.74 55.2405L271.74 61.4605L268.77 58.5005L269.05 56.7905C267.529 58.3155 265.59 59.3552 263.478 59.7779C261.365 60.2007 259.175 59.9875 257.184 59.1654C255.193 58.3433 253.491 56.9492 252.292 55.1594C251.093 53.3696 250.453 51.2646 250.45 49.1105V49.1505ZM124.6 52.3905C124.549 53.5621 124.793 54.7278 125.31 55.7805C125.786 56.7079 126.471 57.5124 127.31 58.1305C128.188 58.7681 129.179 59.233 130.23 59.5005C131.346 59.7999 132.496 59.9512 133.65 59.9505C134.938 59.9747 136.222 59.8061 137.46 59.4505C138.465 59.1667 139.406 58.6913 140.23 58.0505C140.956 57.4699 141.535 56.7265 141.92 55.8805C142.302 55.0283 142.496 54.1042 142.49 53.1705C142.533 52.1406 142.261 51.1221 141.71 50.2505C141.255 49.5176 140.648 48.8903 139.93 48.4105C139.284 47.9685 138.572 47.631 137.82 47.4105C137.282 47.2322 136.734 47.082 136.18 46.9605L132.93 46.1305C132.271 45.972 131.626 45.7613 131 45.5005C130.634 45.3537 130.315 45.1078 130.08 44.7905C129.91 44.4855 129.827 44.1395 129.84 43.7905C129.826 43.3923 129.93 42.9989 130.14 42.6605C130.337 42.3684 130.588 42.1171 130.88 41.9205C131.188 41.7251 131.526 41.5831 131.88 41.5005C132.252 41.4214 132.631 41.3812 133.01 41.3805C133.553 41.3631 134.096 41.4033 134.63 41.5005C135.095 41.5873 135.539 41.7603 135.94 42.0105C136.323 42.2555 136.631 42.6016 136.83 43.0105C137.077 43.4706 137.221 43.9791 137.25 44.5005H141.77C141.806 43.4135 141.562 42.3356 141.06 41.3705C140.62 40.5157 139.979 39.7811 139.19 39.2305C138.363 38.6592 137.432 38.255 136.45 38.0405C135.411 37.7775 134.343 37.6465 133.27 37.6505C132.304 37.6522 131.342 37.7833 130.41 38.0405C129.493 38.2823 128.626 38.6852 127.85 39.2305C127.099 39.7581 126.468 40.4399 126 41.2305C125.527 42.0969 125.292 43.0736 125.32 44.0605C125.297 44.9251 125.482 45.7825 125.86 46.5605C126.223 47.2228 126.72 47.8019 127.32 48.2605C127.93 48.7296 128.604 49.11 129.32 49.3905C130.08 49.674 130.854 49.9144 131.64 50.1105C132.41 50.3305 133.18 50.5305 133.93 50.7005C134.611 50.8636 135.279 51.0741 135.93 51.3305C136.461 51.5295 136.947 51.832 137.36 52.2205C137.549 52.4002 137.698 52.6179 137.796 52.8592C137.894 53.1006 137.94 53.3601 137.93 53.6205C137.947 54.1019 137.799 54.5745 137.51 54.9605C137.239 55.296 136.897 55.5689 136.51 55.7605C136.086 55.9642 135.635 56.1057 135.17 56.1805C134.726 56.2382 134.278 56.2683 133.83 56.2705C133.216 56.2903 132.602 56.2366 132 56.1105C131.46 55.9669 130.947 55.7373 130.48 55.4305C130.06 55.104 129.718 54.687 129.48 54.2105C129.206 53.6475 129.072 53.0264 129.09 52.4005L124.6 52.3905ZM176.48 43.3905L179.16 51.1905H173.66L176.48 43.3905ZM166.16 59.1905V38.2005H159.58L154.82 52.8105L149.82 38.2005H143.28V59.4405H147.65L147.71 44.5005L152.92 59.4105H156.52L161.79 44.3505V59.4405H170.79L172.46 54.7105H180.4L182 59.4405H186.85L178.89 38.2005H174.1L166.16 59.1905ZM185.36 52.4005C185.312 53.573 185.56 54.7387 186.08 55.7905C186.557 56.7173 187.242 57.5216 188.08 58.1405C188.959 58.7743 189.95 59.2358 191 59.5005C192.116 59.8 193.266 59.9513 194.42 59.9505C195.708 59.9735 196.992 59.805 198.23 59.4505C199.235 59.1667 200.176 58.6913 201 58.0505C201.731 57.4718 202.313 56.7281 202.7 55.8805C203.08 55.028 203.271 54.1036 203.26 53.1705C203.307 52.1415 203.038 51.1227 202.49 50.2505C202.031 49.5169 201.421 48.8897 200.7 48.4105C200.054 47.9683 199.342 47.6308 198.59 47.4105C198.052 47.2315 197.505 47.0813 196.95 46.9605L193.71 46.1305C193.047 45.9622 192.399 45.7415 191.77 45.4705C191.404 45.3232 191.086 45.0775 190.85 44.7605C190.68 44.4555 190.597 44.1095 190.61 43.7605C190.596 43.3623 190.7 42.9689 190.91 42.6305C191.106 42.3377 191.358 42.0863 191.65 41.8905C191.957 41.6948 192.296 41.5527 192.65 41.4705C193.022 41.3914 193.401 41.3512 193.78 41.3505C194.311 41.3459 194.84 41.3961 195.36 41.5005C195.825 41.5873 196.269 41.7603 196.67 42.0105C197.053 42.2563 197.361 42.6022 197.56 43.0105C197.813 43.4697 197.963 43.9779 198 44.5005H202.52C202.553 43.4126 202.305 42.3346 201.8 41.3705C201.361 40.515 200.719 39.7802 199.93 39.2305C199.103 38.6588 198.173 38.2545 197.19 38.0405C196.146 37.79 195.074 37.6724 194 37.6905C193.034 37.6922 192.072 37.8233 191.14 38.0805C190.223 38.3223 189.356 38.7252 188.58 39.2705C187.832 39.7984 187.204 40.4803 186.74 41.2705C186.267 42.1369 186.032 43.1136 186.06 44.1005C186.036 44.9651 186.222 45.8228 186.6 46.6005C186.964 47.2625 187.461 47.8415 188.06 48.3005C188.671 48.7684 189.344 49.1487 190.06 49.4305C190.82 49.7133 191.594 49.9537 192.38 50.1505C193.15 50.3705 193.92 50.5705 194.67 50.7405C195.351 50.9033 196.019 51.1138 196.67 51.3705C197.202 51.569 197.688 51.8716 198.1 52.2605C198.287 52.4414 198.433 52.6596 198.529 52.9008C198.626 53.1421 198.671 53.4009 198.66 53.6605C198.675 54.1417 198.527 54.6138 198.24 55.0005C197.969 55.336 197.627 55.6089 197.24 55.8005C196.816 56.004 196.365 56.1454 195.9 56.2205C195.456 56.2782 195.008 56.3083 194.56 56.3105C193.961 56.3101 193.364 56.2396 192.78 56.1005C192.24 55.9573 191.727 55.7276 191.26 55.4205C190.841 55.093 190.499 54.6763 190.26 54.2005C189.987 53.6373 189.853 53.0164 189.87 52.3905L185.36 52.4005ZM204.04 59.4005H208.71V50.2805H217.31V59.4405H222V38.2005H217.33V46.3505H208.73V38.2005H204L204.04 59.4005ZM224.11 59.4005H228.78V38.2005H224.11V59.4005ZM230.92 59.4005H235.29L235.35 45.1805L244.19 59.4005H248.86V38.2005H244.48L244.43 52.5005L235.57 38.2005H230.93L230.92 59.4005Z" fill="#E96033"/>
<path d="M91.5702 63.61C89.432 62.018 87.0741 60.7447 84.5702 59.83C82.6857 59.0685 80.8887 58.1062 79.2102 56.96C75.2102 54.1733 73.2102 50.7167 73.2102 46.59C73.1104 44.1046 73.8854 41.6629 75.4002 39.69C75.667 39.359 75.9542 39.0451 76.2602 38.75L67.7102 40.75C66.5169 41.0262 65.4821 41.7649 64.8333 42.8037C64.1845 43.8426 63.9747 45.0966 64.2502 46.29L71.3302 76.88C71.6065 78.0711 72.3436 79.1042 73.3802 79.7527C74.4168 80.4013 75.6682 80.6125 76.8602 80.34L80.3602 79.5L80.0902 79.43C77.7298 78.7042 75.4562 77.7217 73.3102 76.5L77.0002 68.34C79.9365 70.731 83.6136 72.025 87.4002 72C91.4002 72 93.4002 70.57 93.4002 67.73C93.4196 66.9506 93.2654 66.1766 92.9489 65.464C92.6325 64.7515 92.1615 64.1182 91.5702 63.61Z" fill="#E96033"/>
<path d="M110.911 67.7199L103.831 37.1299C103.555 35.9388 102.817 34.9057 101.781 34.2572C100.744 33.6086 99.4928 33.3974 98.3008 33.6699L93.1508 34.8599C93.7441 34.9532 94.3308 35.0632 94.9108 35.1899C97.2191 35.7039 99.4534 36.5069 101.561 37.5799L98.5608 45.5799C96.3208 43.6599 93.1908 42.6999 89.1908 42.6999C85.6041 42.6999 83.8074 44.1266 83.8008 46.9799C83.84 47.5837 84.0207 48.1698 84.3281 48.6909C84.6356 49.212 85.0613 49.6535 85.5708 49.9799C87.9429 51.4843 90.4794 52.7122 93.1308 53.6399C95.432 54.4848 97.5877 55.6824 99.5208 57.1899C100.26 57.7799 100.931 58.4507 101.521 59.1899C103.246 61.4367 104.146 64.2082 104.071 67.0399C104.153 69.7736 103.288 72.4516 101.621 74.6199L107.451 73.2699C108.043 73.1344 108.603 72.8831 109.098 72.5304C109.593 72.1777 110.014 71.7305 110.335 71.2147C110.657 70.6989 110.873 70.1245 110.972 69.5248C111.071 68.925 111.05 68.3116 110.911 67.7199V67.7199Z" fill="#E96033"/>
<path d="M127.5 66.5H129.22L133.46 77.44L137.68 66.5H139.4V78.96H138.23V68.18L134 78.96H132.9L128.7 68.18V78.96H127.5V66.5Z" fill="#E96033"/>
<path d="M148.85 66.5H150.15L155 78.96H153.71L152.22 75.08H146.64L145.16 78.96H143.91L148.85 66.5ZM147 74.07H151.82L149.45 67.67L147 74.07Z" fill="#E96033"/>
<path d="M170 78.9605H169.16L169 76.6905C168.626 77.4862 168.022 78.152 167.267 78.6027C166.511 79.0534 165.639 79.2685 164.76 79.2205C160.9 79.2205 158.98 76.1305 158.98 72.7205C158.98 69.3105 160.9 66.2205 164.76 66.2205C165.98 66.1326 167.187 66.5113 168.138 67.28C169.088 68.0486 169.711 69.1498 169.88 70.3605H168.71C168.54 69.4501 168.047 68.632 167.321 68.0568C166.595 67.4816 165.686 67.1882 164.76 67.2305C161.52 67.2305 160.14 69.9905 160.14 72.7205C160.14 75.4505 161.51 78.2105 164.76 78.2105C167.47 78.2105 169.05 76.2705 169 73.6305H164.83V72.6305H170V78.9605Z" fill="#E96033"/>
<path d="M179.25 66.5H180.55L185.36 78.97H184.11L182.62 75.09H177L175.52 78.97H174.27L179.25 66.5ZM177.4 74.08H182.22L179.85 67.68L177.4 74.08Z" fill="#E96033"/>
<path d="M189.31 66.5H198.13V67.5L190.06 77.91H198.3V78.91H188.76V77.91L196.83 67.5H189.31V66.5Z" fill="#E96033"/>
<path d="M203.28 66.5H204.45V78.96H203.28V66.5Z" fill="#E96033"/>
<path d="M210.42 66.5H211.72L218.86 77.05V66.5H220.03V78.96H218.73L211.59 68.41V78.96H210.42V66.5Z" fill="#E96033"/>
<path d="M226 66.5H234.46V67.5H227.16V72.01H234V73.01H227.17V77.94H234.55V78.94H226V66.5Z" fill="#E96033"/>
</g>
</g>
<defs>
<filter id="filter0_dd_1_258163" x="0" y="-10" width="330" height="189" filterUnits="userSpaceOnUse" color-interpolation-filters="sRGB">
<feFlood flood-opacity="0" result="BackgroundImageFix"/>
<feColorMatrix in="SourceAlpha" type="matrix" values="0 0 0 0 0 0 0 0 0 0 0 0 0 0 0 0 0 0 127 0" result="hardAlpha"/>
<feOffset dy="25"/>
<feGaussianBlur stdDeviation="17.5"/>
<feColorMatrix type="matrix" values="0 0 0 0 0.0862745 0 0 0 0 0.0901961 0 0 0 0 0.282353 0 0 0 0.05 0"/>
<feBlend mode="normal" in2="BackgroundImageFix" result="effect1_dropShadow_1_258163"/>
<feColorMatrix in="SourceAlpha" type="matrix" values="0 0 0 0 0 0 0 0 0 0 0 0 0 0 0 0 0 0 127 0" result="hardAlpha"/>
<feOffset/>
<feGaussianBlur stdDeviation="4"/>
<feColorMatrix type="matrix" values="0 0 0 0 0.0862745 0 0 0 0 0.0901961 0 0 0 0 0.282353 0 0 0 0.07 0"/>
<feBlend mode="normal" in2="effect1_dropShadow_1_258163" result="effect2_dropShadow_1_258163"/>
<feBlend mode="normal" in="SourceGraphic" in2="effect2_dropShadow_1_258163" result="shape"/>
</filter>
<clipPath id="clip0_1_258163">
<rect width="220" height="52" fill="white" transform="translate(55 33.5)"/>
</clipPath>
</defs>
</svg>

<svg width="330" height="179" fill="none" xmlns="http://www.w3.org/2000/svg"><g filter="url(#a)"><rect x="35" width="260" height="119" rx="8" fill="#fff"/><g clip-path="url(#b)"><path opacity=".05" d="M83.75 85.08c13.603 0 24.63-1.513 24.63-3.38 0-1.866-11.027-3.38-24.63-3.38s-24.63 1.514-24.63 3.38c0 1.867 11.027 3.38 24.63 3.38z" fill="#000"/><path d="M250.45 49.15a10.887 10.887 0 0 1 8.272-10.633A10.89 10.89 0 0 1 271 44.06l-4 1.3a6.779 6.779 0 0 0-11.331 7.447 6.782 6.782 0 0 0 10.891.713l-2.38.39-2.89-2.89 6.22-1 6.23-1-1 6.22-1 6.22-2.97-2.96.28-1.71a10.887 10.887 0 0 1-16.758-1.63 10.894 10.894 0 0 1-1.842-6.05v.04zM124.6 52.39a7 7 0 0 0 .71 3.39 6.745 6.745 0 0 0 2 2.35 8.565 8.565 0 0 0 2.92 1.37c1.116.3 2.266.451 3.42.45a12.92 12.92 0 0 0 3.81-.5 8.097 8.097 0 0 0 2.77-1.4 5.917 5.917 0 0 0 1.69-2.17 6.522 6.522 0 0 0 .57-2.71 5.069 5.069 0 0 0-.78-2.92 6.054 6.054 0 0 0-1.78-1.84 7.447 7.447 0 0 0-2.11-1 16.348 16.348 0 0 0-1.64-.45l-3.25-.83a12.802 12.802 0 0 1-1.93-.63 2.134 2.134 0 0 1-.92-.71 1.908 1.908 0 0 1-.24-1c-.014-.398.09-.791.3-1.13.197-.292.448-.543.74-.74a3.242 3.242 0 0 1 1-.42c.372-.079.751-.119 1.13-.12a7.673 7.673 0 0 1 1.62.12c.465.087.909.26 1.31.51.383.245.691.592.89 1 .247.46.391.97.42 1.49h4.52a6.328 6.328 0 0 0-.71-3.13 5.902 5.902 0 0 0-1.87-2.14 7.72 7.72 0 0 0-2.74-1.19 12.763 12.763 0 0 0-3.18-.39c-.966.002-1.928.133-2.86.39a8.001 8.001 0 0 0-2.56 1.19 6.477 6.477 0 0 0-1.85 2 5.577 5.577 0 0 0-.68 2.83 5.392 5.392 0 0 0 .54 2.5c.363.663.86 1.242 1.46 1.7.61.47 1.284.85 2 1.13.76.284 1.534.524 2.32.72.77.22 1.54.42 2.29.59.681.164 1.349.374 2 .63a4.278 4.278 0 0 1 1.43.89 1.835 1.835 0 0 1 .57 1.4 2.11 2.11 0 0 1-.42 1.34 2.992 2.992 0 0 1-1 .8 4.885 4.885 0 0 1-1.34.42c-.444.058-.892.088-1.34.09a7.711 7.711 0 0 1-1.83-.16 5.203 5.203 0 0 1-1.52-.68 3.561 3.561 0 0 1-1-1.22 3.882 3.882 0 0 1-.39-1.81l-4.49-.01zm51.88-9 2.68 7.8h-5.5l2.82-7.8zm-10.32 15.8V38.2h-6.58l-4.76 14.61-5-14.61h-6.54v21.24h4.37l.06-14.94 5.21 14.91h3.6l5.27-15.06v15.09h9l1.67-4.73h7.94l1.6 4.73h4.85l-7.96-21.24h-4.79l-7.94 20.99zm19.2-6.79a7.003 7.003 0 0 0 .72 3.39 6.779 6.779 0 0 0 2 2.35A8.579 8.579 0 0 0 191 59.5c1.116.3 2.266.451 3.42.45a12.997 12.997 0 0 0 3.81-.5 8.097 8.097 0 0 0 2.77-1.4 5.883 5.883 0 0 0 1.7-2.17c.38-.852.571-1.776.56-2.71a5.056 5.056 0 0 0-.77-2.92 6.083 6.083 0 0 0-1.79-1.84 7.436 7.436 0 0 0-2.11-1 15.913 15.913 0 0 0-1.64-.45l-3.24-.83a12.96 12.96 0 0 1-1.94-.66 2.146 2.146 0 0 1-.92-.71 1.908 1.908 0 0 1-.24-1c-.014-.398.09-.791.3-1.13a2.7 2.7 0 0 1 .74-.74 3.215 3.215 0 0 1 1-.42c.372-.079.751-.119 1.13-.12a7.685 7.685 0 0 1 1.58.15c.465.087.909.26 1.31.51.383.246.691.592.89 1 .253.46.403.968.44 1.49h4.52a6.332 6.332 0 0 0-.72-3.13 5.88 5.88 0 0 0-1.87-2.14 7.696 7.696 0 0 0-2.74-1.19 12.752 12.752 0 0 0-3.19-.35c-.966.002-1.928.133-2.86.39a8.001 8.001 0 0 0-2.56 1.19 6.44 6.44 0 0 0-1.84 2 5.577 5.577 0 0 0-.68 2.83 5.379 5.379 0 0 0 .54 2.5 5.448 5.448 0 0 0 1.46 1.7 8.272 8.272 0 0 0 2 1.13c.76.283 1.534.524 2.32.72.77.22 1.54.42 2.29.59.681.163 1.349.374 2 .63a4.244 4.244 0 0 1 1.43.89c.187.181.333.4.429.64.097.242.142.5.131.76.015.482-.133.954-.42 1.34a2.992 2.992 0 0 1-1 .8 4.902 4.902 0 0 1-1.34.42c-.444.058-.892.088-1.34.09-.599 0-1.196-.07-1.78-.21a5.185 5.185 0 0 1-1.52-.68 3.6 3.6 0 0 1-1-1.22 3.907 3.907 0 0 1-.39-1.81l-4.51.01zm18.68 7h4.67v-9.12h8.6v9.16H222V38.2h-4.67v8.15h-8.6V38.2H204l.04 21.2zm20.07 0h4.67V38.2h-4.67v21.2zm6.81 0h4.37l.06-14.22 8.84 14.22h4.67V38.2h-4.38l-.05 14.3-8.86-14.3h-4.64l-.01 21.2zM91.57 63.61a27.552 27.552 0 0 0-7-3.78 28.319 28.319 0 0 1-5.36-2.87c-4-2.787-6-6.243-6-10.37a10.63 10.63 0 0 1 2.19-6.9c.267-.331.554-.645.86-.94l-8.55 2a4.62 4.62 0 0 0-3.46 5.54l7.08 30.59a4.62 4.62 0 0 0 5.53 3.46l3.5-.84-.27-.07a33.76 33.76 0 0 1-6.78-2.93L77 68.34A16.3 16.3 0 0 0 87.4 72c4 0 6-1.43 6-4.27a5.26 5.26 0 0 0-1.83-4.12zM110.911 67.72l-7.08-30.59a4.621 4.621 0 0 0-5.53-3.46l-5.15 1.19c.593.093 1.18.203 1.76.33a28.137 28.137 0 0 1 6.65 2.39l-3 8c-2.24-1.92-5.37-2.88-9.37-2.88-3.587 0-5.384 1.427-5.39 4.28a3.86 3.86 0 0 0 1.77 3 36.82 36.82 0 0 0 7.56 3.66 23.64 23.64 0 0 1 6.39 3.55c.739.59 1.41 1.26 2 2a12.353 12.353 0 0 1 2.55 7.85 11.853 11.853 0 0 1-2.45 7.58l5.83-1.35a4.612 4.612 0 0 0 3.46-5.55zM127.5 66.5h1.72l4.24 10.94 4.22-10.94h1.72v12.46h-1.17V68.18L134 78.96h-1.1l-4.2-10.78v10.78h-1.2V66.5zM148.85 66.5h1.3L155 78.96h-1.29l-1.49-3.88h-5.58l-1.48 3.88h-1.25l4.94-12.46zM147 74.07h4.82l-2.37-6.4-2.45 6.4zM170 78.96h-.84l-.16-2.27a4.415 4.415 0 0 1-4.24 2.53c-3.86 0-5.78-3.09-5.78-6.5s1.92-6.5 5.78-6.5a4.821 4.821 0 0 1 5.12 4.14h-1.17a3.837 3.837 0 0 0-3.95-3.13c-3.24 0-4.62 2.76-4.62 5.49 0 2.73 1.37 5.49 4.62 5.49 2.71 0 4.29-1.94 4.24-4.58h-4.17v-1H170v6.33zM179.25 66.5h1.3l4.81 12.47h-1.25l-1.49-3.88H177l-1.48 3.88h-1.25l4.98-12.47zm-1.85 7.58h4.82l-2.37-6.4-2.45 6.4zM189.31 66.5h8.82v1l-8.07 10.41h8.24v1h-9.54v-1l8.07-10.41h-7.52v-1zM203.28 66.5h1.17v12.46h-1.17V66.5zM210.42 66.5h1.3l7.14 10.55V66.5h1.17v12.46h-1.3l-7.14-10.55v10.55h-1.17V66.5zM226 66.5h8.46v1h-7.3v4.51H234v1h-6.83v4.93h7.38v1H226V66.5z" fill="#E96033"/></g></g><defs><clipPath id="b"><path fill="#fff" transform="translate(55 33.5)" d="M0 0h220v52H0z"/></clipPath><filter id="a" x="0" y="-10" width="330" height="189" filterUnits="userSpaceOnUse" color-interpolation-filters="sRGB"><feFlood flood-opacity="0" result="BackgroundImageFix"/><feColorMatrix in="SourceAlpha" values="0 0 0 0 0 0 0 0 0 0 0 0 0 0 0 0 0 0 127 0" result="hardAlpha"/><feOffset dy="25"/><feGaussianBlur stdDeviation="17.5"/><feColorMatrix values="0 0 0 0 0.0862745 0 0 0 0 0.0901961 0 0 0 0 0.282353 0 0 0 0.05 0"/><feBlend in2="BackgroundImageFix" result="effect1_dropShadow_1_258163"/><feColorMatrix in="SourceAlpha" values="0 0 0 0 0 0 0 0 0 0 0 0 0 0 0 0 0 0 127 0" result="hardAlpha"/><feOffset/><feGaussianBlur stdDeviation="4"/><feColorMatrix values="0 0 0 0 0.0862745 0 0 0 0 0.0901961 0 0 0 0 0.282353 0 0 0 0.07 0"/><feBlend in2="effect1_dropShadow_1_258163" result="effect2_dropShadow_1_258163"/><feBlend in="SourceGraphic" in2="effect2_dropShadow_1_258163" result="shape"/></filter></defs></svg>
